; generated by PrusaSlicer 2.5.0+MacOS-x64 on 2023-02-18 at 13:23:45 UTC


;
;
; 

; external perimeters extrusion width = 0.45mm
; perimeters extrusion width = 0.45mm
; infill extrusion width = 0.45mm
; solid infill extrusion width = 0.45mm
; top infill extrusion width = 0.40mm
; first layer extrusion width = 0.42mm

M73 P0 R145
M73 Q0 S145
M201 X1000 Y1000 Z200 E5000 ; sets maximum accelerations, mm/sec^2
M203 X200 Y200 Z12 E120 ; sets maximum feedrates, mm / sec
M204 P1250 R1250 T1250 ; sets acceleration (P, T) and retract acceleration (R), mm/sec^2
M205 X8.00 Y8.00 Z0.40 E4.50 ; sets the jerk limits, mm/sec
M205 S0 T0 ; sets the minimum extruding and travel feed rate, mm/sec
M107
;TYPE:Custom
M862.3 P "MK3S" ; printer model check
M862.1 P0.4 ; nozzle diameter check
M115 U3.11.0 ; tell printer latest fw version
G90 ; use absolute coordinates
M83 ; extruder relative mode
M104 S230 ; set extruder temp
M140 S85 ; set bed temp
M190 S85 ; wait for bed temp
M109 S230 ; wait for extruder temp
G28 W ; home all without mesh bed level
G80 ; mesh bed leveling

G1 Z0.2 F720
G1 Y-3 F1000 ; go outside print area
G92 E0
G1 X60 E9 F1000 ; intro line
G1 X100 E12.5 F1000 ; intro line

G92 E0
M221 S95

; Don't change E values below. Excessive value can damage the printer.
M907 E430 ; set extruder motor current
G21 ; set units to millimeters
G90 ; use absolute coordinates
M83 ; use relative distances for extrusion
M900 K0.08 ; Filament gcode LA 1.5
M900 K45 ; Filament gcode LA 1.0
M107
;LAYER_CHANGE
;Z:0.2
;HEIGHT:0.2
;BEFORE_LAYER_CHANGE
G92 E0.0
;0.2


G1 E-1 F2100
G1 Z.2 F720
;AFTER_LAYER_CHANGE
;0.2
G1 Z.4
G1 X32.824 Y69.136 F10800
G1 Z.2 F720
G1 E1 F2100
M204 S800
;TYPE:Skirt/Brim
;WIDTH:0.42
G1 F1200
G1 X145.995 Y15.406 E3.92801
G1 X157.757 Y9.891 E.40733
G1 X159.174 Y9.435 E.04665
G1 X161.569 Y8.944 E.07666
G1 X163.112 Y8.808 E.04859
G1 X164.484 Y8.803 E.04299
G1 X165.851 Y8.904 E.04299
G1 X167.207 Y9.112 E.04301
G1 X169.71 Y9.793 E.08135
G1 X215.748 Y26.199 E1.53239
G1 X217.023 Y26.719 E.04318
M73 P0 R144
G1 X218.254 Y27.337 E.04318
G1 X219.433 Y28.05 E.04318
G1 X220.552 Y28.853 E.04318
G1 X221.604 Y29.741 E.04318
G1 X222.584 Y30.709 E.04318
G1 X224.195 Y32.706 E.08047
G1 X224.934 Y33.868 E.04318
G1 X225.622 Y35.169 E.04611
G1 X241.302 Y68.319 E1.14981
G1 X242.134 Y70.466 E.0722
G1 X242.786 Y72.43 E.06489
G1 X243.375 Y74.535 E.06855
G1 X243.883 Y76.782 E.0722
G1 X244.257 Y78.936 E.06855
G1 X244.513 Y80.989 E.06489
G1 X244.68 Y83.169 E.06855
G1 X244.74 Y85.355 E.06855
G1 X244.692 Y87.54 E.06855
G1 X244.537 Y89.721 E.06855
G1 X244.275 Y91.891 E.06855
G1 X243.908 Y94.046 E.06855
G1 X243.435 Y96.181 E.06855
G1 X242.857 Y98.29 E.06855
G1 X242.177 Y100.367 E.06855
G1 X241.396 Y102.409 E.06855
G1 X240.516 Y104.41 E.06855
G1 X239.538 Y106.366 E.06855
G1 X238.466 Y108.271 E.06855
G1 X237.301 Y110.121 E.06855
G1 X236.047 Y111.912 E.06855
G1 X234.707 Y113.639 E.06855
G1 X233.205 Y115.385 E.07221
G1 X231.698 Y116.969 E.06855
G1 X229.892 Y118.67 E.0778
G1 X226.83 Y121.18 E.12414
G1 X225.046 Y122.444 E.06855
G1 X223.202 Y123.619 E.06855
G1 X221.2 Y124.757 E.0722
G1 X219.301 Y125.716 E.06672
G1 X79.278 Y192.189 E4.85992
G1 X77.319 Y193.061 E.06724
G1 X75.265 Y193.859 E.06908
G1 X73.175 Y194.554 E.06908
G1 X70.938 Y195.173 E.07277
G1 X68.788 Y195.652 E.06908
G1 X66.732 Y196.007 E.06539
G1 X64.546 Y196.278 E.06908
G1 X62.349 Y196.44 E.06908
G1 X60.029 Y196.492 E.07276
G1 X57.826 Y196.431 E.06908
G1 X55.63 Y196.26 E.06908
G1 X53.56 Y195.999 E.06539
G1 X51.275 Y195.594 E.07277
G1 X49.128 Y195.101 E.06908
G1 X47.008 Y194.502 E.06908
G1 X45.03 Y193.839 E.06539
G1 X42.978 Y193.039 E.06908
G1 X40.861 Y192.087 E.07277
G1 X38.9 Y191.083 E.06908
G1 X37.091 Y190.044 E.06539
G1 X35.236 Y188.856 E.06908
G1 X33.442 Y187.577 E.06908
G1 X31.622 Y186.137 E.07277
G1 X28.827 Y183.573 E.11894
G1 X18.792 Y168.605 E.56502
G1 X5.084 Y139.762 E1.00127
M73 Q0 S144
G1 X4.55 Y138.493 E.04318
G1 X4.116 Y137.186 E.04318
G1 X3.787 Y135.848 E.04318
G1 X3.563 Y134.489 E.04318
G1 X3.434 Y131.926 E.08047
G1 X3.539 Y130.366 E.04903
G1 X4.011 Y127.843 E.08047
G1 X4.444 Y126.44 E.04606
G1 X20.797 Y80.528 E1.52811
G1 X21.875 Y78.105 E.08315
G1 X22.575 Y76.919 E.04318
G1 X23.366 Y75.791 E.04319
G1 X24.368 Y74.591 E.04903
G1 X26.233 Y72.828 E.08047
G1 X27.488 Y71.895 E.04903
G1 X29.796 Y70.574 E.08339
G1 X32.769 Y69.162 E.10319
M204 S1000
; printing object Top.stl id:0 copy 0
;WIPE_START
G1 F8640
G1 X36.486 Y67.398 E-.95
;WIPE_END
G1 E-.05 F2100
G1 Z.4 F720
G1 X32.986 Y181.493 F10800
G1 Z.2 F720
G1 E1 F2100
M204 S800
;TYPE:Perimeter
;WIDTH:0.419999
G1 F1200
G1 X55.867 Y170.619 E.79433
G1 X56.449 Y170.215 E.0222
G1 X56.788 Y169.873 E.01511
G1 X57.052 Y169.509 E.0141
G1 X57.291 Y169.055 E.01607
G1 X57.455 Y168.561 E.01633
G1 X57.579 Y167.668 E.02828
G1 X57.558 Y167.163 E.01585
G1 X57.44 Y166.539 E.01993
G1 X57.177 Y165.782 E.02512
G1 X21.962 Y91.61 E2.57442
G1 X21.778 Y91.129 E.01614
G1 X21.749 Y90.779 E.011
G1 X24.926 Y82.025 E.29198
G1 X25.317 Y81.051 E.03293
G1 X25.775 Y80.125 E.03237
G1 X26.304 Y79.239 E.03237
G1 X26.902 Y78.397 E.03237
G1 X27.564 Y77.604 E.03237
G1 X28.285 Y76.866 E.03237
G1 X29.063 Y76.187 E.03237
G1 X29.891 Y75.57 E.03237
G1 X30.766 Y75.021 E.03237
G1 X31.694 Y74.535 E.03286
G1 X156.427 Y15.256 E4.33011
G1 X156.357 Y15.833 E.01822
G1 X156.362 Y16.333 E.01567
G1 X156.435 Y16.827 E.01567
G1 X156.575 Y17.307 E.01567
G1 X156.78 Y17.763 E.01567
G1 X157.045 Y18.187 E.01567
G1 X157.365 Y18.57 E.01567
G1 X157.735 Y18.907 E.01567
G1 X158.198 Y19.218 E.01749
G1 X159.241 Y19.761 E.03687
G1 X160.279 Y20.2 E.03535
G1 X161.391 Y20.572 E.03677
G1 X162.53 Y20.853 E.03677
G1 X163.687 Y21.042 E.03677
G1 X164.901 Y21.14 E.03818
G1 X166.028 Y21.14 E.03535
G1 X167.197 Y21.048 E.03677
G1 X168.4 Y20.854 E.03819
G1 X169.538 Y20.574 E.03677
G1 X170.612 Y20.218 E.03545
G1 X171.13 Y19.978 E.0179
G1 X171.557 Y19.696 E.01606
G1 X171.941 Y19.358 E.01606
G1 X172.274 Y18.968 E.01606
G1 X172.549 Y18.536 E.01606
G1 X172.761 Y18.07 E.01606
G1 X172.905 Y17.579 E.01606
G1 X172.979 Y17.072 E.01606
G1 X172.981 Y16.56 E.01606
G1 X172.905 Y16.033 E.01668
G1 X172.733 Y15.478 E.01824
G1 X177.091 Y17.032 E.14509
G1 X177.352 Y17.287 E.01145
G1 X177.599 Y17.722 E.01567
G1 X210.545 Y87.121 E2.4087
G1 X211.091 Y88.081 E.03464
G1 X211.535 Y88.708 E.02407
G1 X212.097 Y89.353 E.02684
G1 X212.759 Y89.965 E.02827
G1 X213.484 Y90.502 E.02827
G1 X214.262 Y90.958 E.02827
G1 X215.317 Y91.404 E.03593
G1 X216.166 Y91.654 E.02774
G1 X216.824 Y91.791 E.02109
G1 X217.661 Y91.877 E.02636
G1 X218.112 Y91.877 E.01417
G1 X218.623 Y91.871 E.01602
G1 X219.519 Y91.765 E.02827
G1 X220.397 Y91.564 E.02827
G1 X221.275 Y91.257 E.02915
G1 X222.065 Y90.883 E.02739
G1 X222.834 Y90.413 E.02827
G1 X223.309 Y90.049 E.01876
G1 X223.738 Y89.68 E.01776
G1 X224.198 Y89.237 E.02
G1 X224.777 Y88.546 E.02827
G1 X225.279 Y87.797 E.02827
G1 X225.696 Y86.998 E.02827
G1 X226.026 Y86.158 E.02827
G1 X226.263 Y85.288 E.02827
G1 X226.404 Y84.398 E.02827
G1 X226.449 Y83.497 E.02827
G1 X226.399 Y82.615 E.02772
G1 X226.198 Y81.155 E.04621
G1 X225.917 Y79.711 E.04612
G1 X225.416 Y77.843 E.06062
G1 X225.114 Y76.882 E.03161
G1 X224.608 Y75.534 E.04513
G1 X224.01 Y74.176 E.04652
G1 X200.921 Y25.541 E1.68805
G1 X202.709 Y26.216 E.05993
G1 X214.172 Y30.299 E.38154
G1 X215.145 Y30.689 E.03286
G1 X216.07 Y31.147 E.03237
G1 X216.956 Y31.677 E.03237
G1 X217.798 Y32.274 E.03237
G1 X218.591 Y32.936 E.03237
G1 X219.329 Y33.658 E.03237
G1 X220.009 Y34.435 E.03237
G1 X220.625 Y35.264 E.03237
G1 X221.174 Y36.138 E.03237
G1 X221.66 Y37.066 E.03286
G1 X236.464 Y68.25 E1.08232
G1 X237.27 Y70.059 E.06209
G1 X237.981 Y71.897 E.06179
G1 X238.602 Y73.767 E.06179
G1 X239.131 Y75.665 E.06179
G1 X239.565 Y77.587 E.06179
G1 X239.905 Y79.529 E.06179
G1 X240.149 Y81.484 E.06179
G1 X240.297 Y83.449 E.06179
G1 X240.348 Y85.419 E.06179
G1 X240.302 Y87.389 E.06179
G1 X240.16 Y89.355 E.06179
G1 X239.922 Y91.311 E.06179
G1 X239.588 Y93.253 E.06179
G1 X239.159 Y95.177 E.06179
G1 X238.636 Y97.077 E.06179
G1 X238.021 Y98.949 E.06179
G1 X237.314 Y100.788 E.06179
G1 X236.518 Y102.591 E.06179
G1 X235.634 Y104.353 E.06179
G1 X234.666 Y106.069 E.06179
G1 X233.614 Y107.735 E.06179
G1 X232.481 Y109.348 E.06179
G1 X231.271 Y110.903 E.06179
G1 X229.986 Y112.397 E.06179
G1 X228.629 Y113.827 E.06179
G1 X227.204 Y115.187 E.06179
G1 X225.714 Y116.477 E.06179
G1 X224.162 Y117.691 E.06179
G1 X222.552 Y118.829 E.06179
G1 X220.889 Y119.885 E.06179
G1 X219.176 Y120.859 E.06179
G1 X217.408 Y121.752 E.06209
G1 X77.403 Y188.217 E4.8593
G1 X75.58 Y189.028 E.06257
M73 P0 R143
G1 X73.728 Y189.745 E.06227
G1 X71.842 Y190.369 E.06227
G1 X69.928 Y190.899 E.06227
G1 X67.99 Y191.333 E.06227
G1 X66.034 Y191.671 E.06227
G1 X64.062 Y191.912 E.06227
G1 X62.081 Y192.056 E.06227
G1 X60.096 Y192.101 E.06227
G1 X58.111 Y192.048 E.06227
G1 X56.131 Y191.897 E.06227
G1 X54.16 Y191.648 E.06227
G1 X52.205 Y191.302 E.06227
G1 X50.269 Y190.859 E.06227
G1 X48.357 Y190.322 E.06227
G1 X46.474 Y189.691 E.06227
G1 X44.624 Y188.967 E.06227
G1 X42.813 Y188.153 E.06227
G1 X41.044 Y187.25 E.06227
G1 X39.322 Y186.261 E.06227
G1 X37.651 Y185.187 E.06227
G1 X36.035 Y184.033 E.06227
G1 X34.478 Y182.8 E.06227
G1 X33.031 Y181.532 E.06032
M204 S1000
G1 X32.437 Y181.374 F10800
M204 S800
;TYPE:External perimeter
G1 F1200
G1 X32.85 Y181.137 E.01493
G1 X55.652 Y170.309 E.79146
G1 X56.263 Y169.88 E.02342
G1 X56.628 Y169.455 E.01755
G1 X56.932 Y168.932 E.01896
G1 X57.082 Y168.506 E.01418
G1 X57.201 Y167.713 E.02513
G1 X57.187 Y167.23 E.01516
G1 X57.083 Y166.661 E.01814
G1 X56.837 Y165.944 E.02377
G1 X21.615 Y91.758 E2.57487
G1 X21.406 Y91.214 E.01829
G1 X21.366 Y90.728 E.01528
G1 X24.573 Y81.891 E.29476
G1 X24.972 Y80.896 E.03359
G1 X25.444 Y79.945 E.0333
G1 X25.988 Y79.033 E.0333
M73 Q1 S144
G1 X26.603 Y78.167 E.0333
G1 X27.284 Y77.351 E.0333
G1 X28.026 Y76.592 E.0333
G1 X28.826 Y75.893 E.0333
G1 X29.678 Y75.259 E.0333
G1 X30.577 Y74.694 E.0333
G1 X31.526 Y74.197 E.03356
G1 X156.829 Y14.649 E4.34988
M73 P1 R143
G1 X156.87 Y14.784 E.00443
M73 Q1 S143
G1 X156.732 Y15.877 E.03454
G1 X156.739 Y16.325 E.01405
G1 X156.808 Y16.768 E.01405
G1 X156.936 Y17.197 E.01405
G1 X157.122 Y17.605 E.01405
G1 X157.362 Y17.984 E.01405
G1 X157.652 Y18.326 E.01405
G1 X157.986 Y18.625 E.01405
G1 X158.372 Y18.884 E.01459
G1 X159.388 Y19.413 E.03592
G1 X160.426 Y19.853 E.03535
G1 X161.51 Y20.214 E.03582
G1 X162.634 Y20.49 E.03629
G1 X163.747 Y20.67 E.03535
G1 X164.899 Y20.763 E.03621
G1 X166.028 Y20.763 E.03543
G1 X167.167 Y20.673 E.03582
G1 X168.31 Y20.488 E.03629
G1 X169.42 Y20.216 E.03582
G1 X170.493 Y19.86 E.03545
G1 X170.902 Y19.673 E.01411
G1 X171.29 Y19.427 E.0144
G1 X171.639 Y19.128 E.0144
G1 X171.942 Y18.784 E.0144
G1 X172.195 Y18.4 E.0144
G1 X172.375 Y18.018 E.01325
G1 X172.526 Y17.546 E.01554
G1 X172.599 Y17.093 E.0144
G1 X172.608 Y16.634 E.0144
G1 X172.545 Y16.145 E.01543
G1 X172.208 Y14.984 E.03793
G1 X172.222 Y14.895 E.0028
G1 X177.296 Y16.704 E.16891
G1 X177.654 Y17.055 E.01571
G1 X177.934 Y17.547 E.01777
G1 X210.886 Y86.959 E2.40914
G1 X211.401 Y87.867 E.03273
G1 X211.82 Y88.461 E.0228
G1 X212.354 Y89.077 E.02556
G1 X212.985 Y89.663 E.027
G1 X213.676 Y90.178 E.027
G1 X214.417 Y90.615 E.027
G1 X215.435 Y91.046 E.03466
G1 X216.244 Y91.285 E.02646
G1 X217.071 Y91.437 E.02635
G1 X217.719 Y91.503 E.02043
G1 X218.58 Y91.496 E.027
G1 X219.436 Y91.397 E.027
G1 X220.275 Y91.207 E.027
G1 X221.115 Y90.915 E.02788
G1 X221.869 Y90.561 E.02611
G1 X222.604 Y90.113 E.027
G1 X223.08 Y89.75 E.01876
G1 X223.478 Y89.407 E.01648
G1 X223.91 Y88.994 E.01873
G1 X224.465 Y88.335 E.027
G1 X224.945 Y87.621 E.027
G1 X225.346 Y86.859 E.027
G1 X225.662 Y86.058 E.027
G1 X225.89 Y85.228 E.027
G1 X226.028 Y84.378 E.027
G1 X226.073 Y83.518 E.027
G1 X226.026 Y82.668 E.02668
G1 X225.828 Y81.227 E.04562
G1 X225.551 Y79.803 E.04546
G1 X225.057 Y77.956 E.05996
G1 X224.761 Y77.014 E.03095
G1 X224.255 Y75.667 E.04513
G1 X223.669 Y74.338 E.04553
G1 X200.557 Y25.654 E1.68974
G1 X200.306 Y24.906 E.02474
G1 X202.835 Y25.861 E.08476
G1 X214.305 Y29.946 E.38177
G1 X215.299 Y30.344 E.03356
G1 X216.251 Y30.816 E.0333
G1 X217.162 Y31.361 E.0333
G1 X218.029 Y31.975 E.0333
G1 X218.844 Y32.656 E.0333
G1 X219.603 Y33.398 E.0333
G1 X220.302 Y34.198 E.0333
G1 X220.936 Y35.05 E.0333
G1 X221.501 Y35.95 E.0333
G1 X221.998 Y36.898 E.03356
G1 X236.807 Y68.092 E1.08269
G1 X237.618 Y69.914 E.06253
G1 X238.336 Y71.769 E.06237
G1 X238.963 Y73.657 E.06237
G1 X239.496 Y75.573 E.06237
G1 X239.935 Y77.513 E.06237
G1 X240.278 Y79.473 E.06237
G1 X240.524 Y81.447 E.06237
G1 X240.673 Y83.43 E.06237
G1 X240.725 Y85.419 E.06237
G1 X240.679 Y87.407 E.06237
G1 X240.536 Y89.391 E.06237
G1 X240.295 Y91.366 E.06237
G1 X239.958 Y93.326 E.06237
G1 X239.525 Y95.268 E.06237
G1 X238.997 Y97.186 E.06237
G1 X238.376 Y99.075 E.06237
G1 X237.663 Y100.932 E.06237
G1 X236.859 Y102.752 E.06237
G1 X235.967 Y104.53 E.06237
G1 X234.989 Y106.262 E.06237
G1 X233.928 Y107.944 E.06237
G1 X232.785 Y109.572 E.06237
G1 X231.563 Y111.142 E.06237
G1 X230.266 Y112.65 E.06237
G1 X228.897 Y114.093 E.06237
G1 X227.458 Y115.467 E.06237
G1 X225.953 Y116.768 E.06237
G1 X224.387 Y117.994 E.06237
G1 X222.762 Y119.142 E.06237
G1 X221.083 Y120.208 E.06237
G1 X219.354 Y121.191 E.06237
G1 X217.574 Y122.091 E.06253
G1 X77.561 Y188.56 E4.85959
G1 X75.725 Y189.377 E.06301
G1 X73.855 Y190.1 E.06286
G1 X71.952 Y190.73 E.06285
G1 X70.02 Y191.264 E.06285
G1 X68.064 Y191.703 E.06285
G1 X66.089 Y192.045 E.06285
G1 X64.099 Y192.288 E.06286
G1 X62.099 Y192.433 E.06285
G1 X60.095 Y192.478 E.06285
G1 X58.091 Y192.425 E.06285
G1 X56.093 Y192.272 E.06285
G1 X54.104 Y192.021 E.06285
G1 X52.13 Y191.671 E.06285
G1 X50.176 Y191.225 E.06285
G1 X48.246 Y190.682 E.06285
G1 X46.345 Y190.045 E.06285
G1 X44.478 Y189.315 E.06285
G1 X42.65 Y188.493 E.06285
G1 X40.864 Y187.581 E.06285
G1 X39.126 Y186.583 E.06285
G1 X37.439 Y185.5 E.06285
G1 X35.808 Y184.334 E.06285
G1 X34.237 Y183.09 E.06285
G1 X32.768 Y181.804 E.0612
G1 X32.352 Y181.469 E.01676
G1 X32.397 Y181.419 E.00212
M204 S1000
G1 X32.837 Y181.357 F10800
;WIPE_START
G1 F8640
G1 X32.85 Y181.137 E-.12317
G1 X36.085 Y179.601 E-.82683
;WIPE_END
G1 E-.05 F2100
G1 Z.4 F720
G1 X169.423 Y98.06 F10800
G1 Z.2 F720
G1 E1 F2100
M204 S800
;TYPE:Perimeter
G1 F1200
G1 X169.447 Y100.264 E.06911
G1 X169.37 Y102.486 E.06973
G1 X169.192 Y104.703 E.06973
G1 X168.909 Y106.935 E.07054
G1 X168.529 Y109.126 E.06973
G1 X168.05 Y111.298 E.06973
G1 X167.472 Y113.447 E.0698
G1 X166.806 Y115.54 E.06886
G1 X166.037 Y117.627 E.06973
G1 X165.173 Y119.676 E.06973
G1 X164.217 Y121.684 E.06973
G1 X163.171 Y123.647 E.06973
G1 X162.036 Y125.559 E.06973
G1 X160.815 Y127.418 E.06973
G1 X159.512 Y129.22 E.06973
G1 X158.127 Y130.96 E.06973
G1 X156.647 Y132.655 E.07054
G1 X155.109 Y134.262 E.06973
G1 X153.5 Y135.796 E.06973
G1 X151.822 Y137.256 E.06973
G1 X150.08 Y138.639 E.06973
G1 X148.277 Y139.94 E.06973
G1 X146.438 Y141.144 E.06892
G1 X144.524 Y142.277 E.06973
G1 X142.561 Y143.322 E.06973
G1 X140.552 Y144.276 E.06973
G1 X138.502 Y145.138 E.06973
G1 X136.415 Y145.906 E.06973
G1 X134.295 Y146.578 E.06973
G1 X132.146 Y147.152 E.06973
G1 X129.974 Y147.629 E.06973
G1 X127.782 Y148.006 E.06973
G1 X125.55 Y148.285 E.07054
G1 X123.333 Y148.46 E.06973
G1 X121.11 Y148.534 E.06973
G1 X118.886 Y148.506 E.06973
G1 X116.666 Y148.378 E.06973
G1 X114.454 Y148.148 E.06973
G1 X112.255 Y147.818 E.06973
G1 X110.073 Y147.389 E.06973
G1 X107.937 Y146.867 E.06892
G1 X105.803 Y146.241 E.06973
G1 X103.699 Y145.52 E.06973
G1 X101.631 Y144.703 E.06973
G1 X99.602 Y143.793 E.06973
G1 X97.616 Y142.791 E.06973
G1 X95.656 Y141.687 E.07054
G1 X93.791 Y140.523 E.06892
G1 X93.262 Y140.158 E.02014
G1 X91.961 Y139.26 E.04959
G1 X90.189 Y137.916 E.06973
G1 X88.481 Y136.492 E.06973
G1 X86.839 Y134.992 E.06973
G1 X85.267 Y133.419 E.06973
G1 X83.768 Y131.775 E.06973
G1 X82.346 Y130.066 E.06973
G1 X81.003 Y128.293 E.06973
G1 X79.742 Y126.461 E.06973
G1 X78.566 Y124.574 E.06973
G1 X77.476 Y122.635 E.06973
G1 X76.466 Y120.625 E.07054
G1 X75.558 Y118.594 E.06973
G1 X74.744 Y116.525 E.06973
